X:1
T:Miss Georgina B. Stewart, West Park, Elgin
T:Miss Georgina B. Stewart, West Park, Elgin
T:William Marshall
C:William Marshall
%%score { ( 1 2 ) 3 }
L:1/8
M:4/4
K:F
V:1 treble 
V:2 treble 
V:3 bass 
V:1
 F2 DF A,FCF | cAFA G/G/G G2 | F2 DF A,FCF | f<dc>A F/F/F F2 | F2 DF A,FCF | cAFA G/G/G G2 | %6
 F2 DF A,FCF | f<dc>A F/F/F F2 |] f2 af fcbg | f2 af ecge | f2 af g2 bg | afce [Af]/f/f f2 | %12
 f2 af fcbg | f2 af ecf>c | dBfB cAfA | [A,C]F[B,E]G [A,F]/[A,F]/[A,F] [A,F]2 |] %16
V:2
 x8 | x8 | x8 | x8 | x8 | x8 | x8 | x8 |] x8 | x8 | x8 | x2 B2 x4 | x8 | x8 | x8 | x8 |] %16
V:3
 [Ff]2 [Ff]2 [Ff]2 [Ff]2 | [Ff]2 [Ff]2 [Cc]2 [Cc]2 | [Ff]2 [Ff]2 [Ff]2 [Ff]2 | %3
 [Bb]2 [Cc]2 [Ff]2 [Ff]2 | [Ff]2 [Ff]2 [Ff]2 [Ff]2 | [Ff]2 [Ff]2 [Cc]2 [Cc]2 | %6
 [Ff]2 [Ff]2 [Ff]2 [Ff]2 | [Bb]2 [Cc]2 [Ff]2 [Ff]2 |] [fac']2 [fac']2 [cgc']2 [cgc']2 | %9
 [fac']2 [fac']2 [cgb]2 [cgb]2 | [fac']2 [fac']2 [egc']2 [egc']2 | [fac']2 [fac']2 [Ff]2 [Ff]2 | %12
 [fac']2 [fac']2 [cgc']2 [cgc']2 | [fac']2 [fac']2 [cc']2 [Aa]2 | [Bb]2 [Dd]2 [Ff]2 [Ff]2 | %15
 [Cc]2 [Cc]2 [Ff]2 [Ff]2 |] %16

